X:13523
%642
T:Andro 2
G:Kazimodal
R:Andro
C:Traditionnel, arrangement Ronan Keryell http://kazimodal.trad.org
Q:C2/1=112
P:B5
M:4/4
S:TonioÃ¹ Breizh-Izel 1721 (Pleskob)
K:Cmaj
P:B
%\large
%%%%MIDI program 109
%%MIDI gchord fcfcfcfc
%%MIDI chordprog 105
%%MIDI bassprog 32
%%MIDI bassvol 127
|: "C"{CD}C/2G,/2C/2E/2 "G"{DE}D>B, "F"A,"G"B, "C"CC |\
G,(C/2E/2) "Dm"{DE}D>C "F"A,"G"B, "C"C2 :|
"C"{CD}CD/2E/2 "Dm"D>D "Em"{CD}CD/2E/2 "G"D2 |\
"C"{CD}CD/2E/2 "Am"CC "G"(B,/2C/2)"F"A,/2B,/2 "Em"G,2 |
"C"{CD}CD/2E/2 "Dm"D>D "F"{CD}CD/2E/2 "G"D2 |\
"C"{CD}CE/2D/2 "Dm"(C/2B,/2)"Em"A,/2B,/2 "F"{CD}C(B,/2"G"D/2) "C"C2 ||
\bigskip


